!!!OTL: Divertimento in D, 1. Satz, KV 136/01
!!!system-decoration: [(s1,s2,s3,s4)]
**kern	**kern	**kern	**kern	**kern	**kern	**kern	**kern	**kern	**kern	**kern	**kern	**kern	**kern	**kern	**kern
*part4	*part4	*part4	*part4	*part3	*part3	*part3	*part3	*part2	*part2	*part2	*part2	*part1	*part1	*part1	*part1
*staff16	*staff15	*staff14	*staff13	*staff12	*staff11	*staff10	*staff9	*staff8	*staff7	*staff6	*staff5	*staff4	*staff3	*staff2	*staff1
*I"Violoncello e Basso	*	*	*	*I"Viola	*	*	*	*I"Violino II	*	*	*	*I"Violino I	*	*	*
*clefF4	*clefC3	*clefG2	*clefG2
*k[f#c#]	*k[f#c#]	*k[f#c#]	*k[f#c#]
*M4/4	*M4/4	*M4/4	*M4/4
8DL	8dL	8f#yL	1aa
8D	8d	8f#y	.
8D	8d	8f#y	.
8DJ	8dJ	8f#yJ	.
8DL	8dL	8f#yL	.
8D	8d	8f#y	.
8D	8d	8f#y	.
8DJ	8dJ	8f#yJ	.
=2	=2	=2	=2
.	.	.	(<16qgg
8DL	8dL	8aL	2ff#y)
8D	8d	8a	.
8D	8d	8a	.
8DJ	8dJ	8aJ	.
.	.	.	(<16qee
8DL	8AL	8f#yL	2dd)
8D	8A	8f#y	.
8D	8A	8f#y	.
8DJ	8AJ	8f#yJ	.
=3	=3	=3	=3
8DL	[1A	(16eL	(16cc#yL
.	.	16f#y	16dd
8D	.	16g	16ee
.	.	16f#yJ)	16ddJ)
8D	.	(16eL	(16cc#yL
.	.	16f#y	16dd
8DJ	.	16g	16ee
.	.	16f#yJ)	16ddJ)
8DL	.	(16eL	(16cc#yL
.	.	16f#y	16dd
8D	.	16g	16ee
.	.	16f#yJ)	16ddJ)
8D	.	(16eL	(16cc#yL
.	.	16f#y	16dd
8DJ	.	16g	16ee
.	.	16eJ)	16cc#yJ)
=4	=4	=4	=4
8DL	8AL]	4f#y	4dd
8D	(8f#y	.	.
8D	8a	4r	4r
8DJ	8f#yJ)	.	.
8DL	8dL	8r	8r
8D	(8A	(8dL	(8aaL
8D	8d	8f#y	8ff#y
8DJ	8f#yJ)	8aJ)	8ddJ)
!!LO:LB
=5	=5	=5	=5
8AAL	[1A	(16c#yL	(16eeL
.	.	16d	16ff#y
8AA	.	16e	16gg
.	.	16dJ)	16ff#yJ)
8AA	.	(16c#yL	(16eeL
.	.	16d	16ff#y
8AAJ	.	16e	16gg
.	.	16dJ)	16ff#yJ)
8AAL	.	(16c#yL	(16eeL
.	.	16d	16ff#y
8AA	.	16e	16gg
.	.	16dJ)	16ff#yJ)
8AA	.	(16c#yL	(16eeL
.	.	16d	16ff#y
8AAJ	.	16e	16gg
.	.	16c#yJ)	16eeJ)
=6	=6	=6	=6
8DL	8A]	8d	4ff#y
8D	4d	4a	.
8D	.	.	4.dd
8DJ	4f#y	4a	.
8DL	.	.	.
8D	(8f#yL	4a	16eeL
.	.	.	16ff#yJ
8E	8e	.	16ggL
.	.	.	16aa
8EJ	8gJ)	8a	16bb
.	.	.	16ccc#yJ
=7	=7	=7	=7
8F#yL	8f#yL	8aL	2ddd
8F#y	8f#y	8a	.
8F#y	8f#y	8a	.
8F#yJ	8f#yJ	8aJ	.
8F#yL	8aL	8ddL	4aa
8F#y	8a	8dd	.
8F#y	8a	8dd	4ff#y
8F#yJ	8aJ	8ddJ	.
=8	=8	=8	=8
8GL	8gL	8dd	(16ff#yL
.	.	.	16gg
8G	8g	4b	16dd#
.	.	.	16eeJ)
8G	8g	.	4ee
8GJ	8gJ	4b	.
8GL	8gL	.	8r
8G	(8g	(8bL	(8eeL
8G	8b	8ee	8gg
8GJ	8eJ)	8ggJ)	8bbJ)
!!LO:LB
=9	=9	=9	=9
.	.	(<16qee#	.
.	.	.	(<16qgg#
8AL	8aL	2ff#y)	2aa)
8A	8A	.	.
8A	8A	.	.
8AJ	8AJ	.	.
.	.	(<16qee#y	.
.	.	.	(<16qgg#y
8AL	8AL	4ff#y)	4aa)
8A	8A	.	.
.	.	(<16qee#y	.
.	.	.	(<16qgg#y
8A	8A	4ff#y)	4aa)
8AJ	8AJ	.	.
=10	=10	=10	=10
.	.	(<16qdd#	.
.	.	.	(<16qaa
8AAL	8AL	4ee)	4ggn)
8AA	8A	.	.
.	.	(<16qdd#y	.
.	.	.	(<16qff#y
8AA	8A	4.ee)	4.gg)
8AAJ	8AJ	.	.
8AAL	8AL	.	.
8AA	8A	16ddnL	16ff#yL
.	.	16eeJ	16ggJ
8AA	8A	16ff#yL	16aaL
.	.	16ee	16gg
8AAJ	8AJ	16dd	16ff#y
.	.	16cc#yJ	16eeJ
=11	=11	=11	=11
4D	4A	4dd	16ddL
.	.	.	16a
.	.	.	16f#y
.	.	.	16aJ
8r	8r	8r	16ddL
.	.	.	16a
8AA	8a	8cc#y	16ee
.	.	.	16aJ
4D	4a	4dd	16ff#yL
.	.	.	16dd
.	.	.	16aa
.	.	.	16ff#yJ
8r	8r	8r	16ggL
.	.	.	16ee
8A	8e	8g	16dd
.	.	.	16cc#yJ
=12	=12	=12	=12
4D	4d	4f#y	16ddL
.	.	.	16a
.	.	.	16f#y
.	.	.	16aJ
8r	8r	8r	16ddL
.	.	.	16a
8AA	8a	8cc#y	16ee
.	.	.	16aJ
4D	4a	4dd	16ff#yL
.	.	.	16a
.	.	.	16ff#y
.	.	.	16aaJ
8r	8r	4r	16ggL
.	.	.	16ee
8A	8g	.	16dd
.	.	.	16cc#yJ
=13	=13	=13	=13
8DL	8f#yL	2.ddd	4dd
8D	8f#y	.	.
8D	8f#y	.	4r
8DJ	8f#yJ	.	.
8DL	8f#yL	.	2r
8D	8f#y	.	.
8D	8f#y	8.aaL	.
8DJ	8f#yJ	.	.
.	.	16ff#yJ	.
=14	=14	=14	=14
8DL	8f#yL 8A	4dd	1r
8D	8f#y 8A	.	.
8D	8f#y 8A	8.aL	.
8DJ	8f#yJ 8A	.	.
.	.	16f#yJ	.
8DL	8f#yL 8A	8dL	.
8D	16d	16ff#y	.
.	16eJ	16gg#J	.
8D	8f#yL	8aaL	.
8DJ	8f#yJ	8aaJ	.
=15	=15	=15	=15
.	.	(<16qbb	.
8EL	8BL	(8aaLT)	2.ddd
8E	8B	8gg#J)	.
8E	8B	4gg#y	.
8EJ	8BJ	.	.
8EL	8BL	2r	.
8E	8B	.	.
8E	8B	.	8.bbL
8EJ	8BJ	.	.
.	.	.	16gg#J
!!LO:LB
=16	=16	=16	=16
8EL	8g#L 8B	2r	4dd
8E	8g#y 8B	.	.
8E	8g#y 8B	.	8.bL
8EJ	8g#yJ 8B	.	.
.	.	.	16g#J
8EL	8g#y 8B	8r	8eL
8E	4e	16g#L	16b
.	.	16aJ	16cc#yJ
8E	.	8bL	8ddL
8G#J	[8e	8bJ	8ddJ
=17	=17	=17	=17
8AL	8e]	4a	16cc#yL
.	.	.	16a
8A	4e	.	16b
.	.	.	16cc#yJ
8A	.	4r	16ddL
.	.	.	16ee
8AJ	4e	.	16ff#y
.	.	.	16gg#J
8c#yL	.	2r	16aaL
.	.	.	16bb
8c#y	4e	.	16ccc#y
.	.	.	16bbJ
8c#y	.	.	16aaL
.	.	.	16gg#y
8c#yJ	[8e	.	16ff#y
.	.	.	16eeJ
=18	=18	=18	=18
8BL	8e]	1r	16ddL
.	.	.	16b
8B	4e	.	16cc#y
.	.	.	16ddJ
8B	.	.	16eeL
.	.	.	16ff#y
8BJ	4e	.	16gg#
.	.	.	16aaJ
8G#L	.	.	16bbL
.	.	.	16aa
8G#y	4e	.	16gg#y
.	.	.	16aaJ
8G#y	.	.	16gg#yL
.	.	.	16ff#y
8G#yJ	8e	.	16ee
.	.	.	16ddJ
!!LO:LB
=19	=19	=19	=19
8AL	4e	16r	4cc#y
.	.	16aL	.
8A	.	16b	.
.	.	16cc#yJ	.
8A	4r	16ddL	[2.ee
.	.	16ee	.
8AJ	.	16ff#y	.
.	.	16gg#J	.
8c#yL	2r	16aaL	.
.	.	16bb	.
8c#y	.	16ccc#y	.
.	.	16bbJ	.
8c#y	.	16aaL	.
.	.	16gg#y	.
8c#yJ	.	16ff#y	.
.	.	16eeJ	.
=20	=20	=20	=20
8BL	1g#	16ddL	1ee_
.	.	16b	.
8B	.	16cc#y	.
.	.	16ddJ	.
8B	.	16eeL	.
.	.	16ff#y	.
8BJ	.	16gg#	.
.	.	16aaJ	.
8EL	.	16bbL	.
.	.	16aa	.
8E	.	16gg#y	.
.	.	16aaJ	.
8E	.	16gg#yL	.
.	.	16ff#y	.
8EJ	.	16ee	.
.	.	16ddJ	.
=21	=21	=21	=21
4AA	4a	8cc#yL	4ee]
.	.	8aa	.
4r	4r	8a	4r
.	.	8bJT	.
2r	2r	8cc#yL	8r
.	.	8aa	8aaL
.	.	8cc#y	8a
.	.	8ddJT	8bJT
=22	=22	=22	=22
2r	8r	8cc#y	8cc#yL
.	8aL	(4aa	(8cc#y
.	8A	.	8ee
.	8BJT	8gg#)	8ddJ)
8r	8c#y	8aaL	8eeL
8AL	(4e	(8ee	(16ccc#y
.	.	.	16aaJ)
8AA	.	8cc#y	(8eeL
8BBJT	8g#)	8bJ)	8ddJ)
!!LO:LB
=23	=23	=23	=23
8C#yL	4a	8a	8cc#yL
8C#y	.	4cc#y	8eeJ
8C#y	8r	.	4.aa
8C#yJ	4a	4ee	.
8C#yL	.	.	.
8C#y	(8eL	4a	8ggnL
8C#y	8d	.	8ff#y
8C#yJ	8c#yJ)	8a	8ee#J
=24	=24	=24	=24
.	.	.	(<16qee#
8DL	8dL	8aL	2ff#y)
8D	8d	8a	.
8D	8d	8a	.
8DJ	8dJ	8aJ	.
.	.	.	(<16qee#y
8DL	8dL	8aL	4ff#y)
8D	8d	8a	.
.	.	.	(<16qee#y
8D	8d	8a	4ff#y)
8DJ	8dJ	8aJ	.
=25	=25	=25	=25
8EL	8eL	8gL	1A#
8E	8c#y	8g	.
8E	8c#y	8g	.
8EJ	8c#yJ	8gJ	.
8EL	8c#yL	8gL	.
8E	8c#y	8g	.
8E	8c#y	8g	.
8EJ	8c#yJ	8gJ	.
=26	=26	=26	=26
8DL	8dL	8f#yL	2B
8D	8d	8f#y	.
8D	8d	8f#y	.
8DJ	8dJ	8f#yJ	.
8DL	8dL	8BL	4ff#y
8D	8d	8B	.
8D	8B	8e	4gg#
8DJ	8BJ	8eJ	.
=27	=27	=27	=27
8C#yL	(8c#yL	(8eL	[2aa
8C#y	8e)	8a)	.
8C#y	8e	8a	.
8C#yJ	8eJ	8aJ	.
4C#y	4e	4a	16aaL]
.	.	.	(16gg#'
.	.	.	16ff#y'
.	.	.	16ee'J
4r	4r	4r	16dd'L
.	.	.	16cc#y'
.	.	.	16b'
.	.	.	16a'J)
=28	=28	=28	=28
8DL	(8AL	(8f#yL	[2aa
8D	8f#y)	8a)	.
8D	8f#y	8a	.
8DJ	8f#yJ	8aJ	.
4D	4f#y	4a	16aaL]
.	.	.	(16gg#'
.	.	.	16ff#y'
.	.	.	16ee'J
4r	4r	4r	16dd'L
.	.	.	16cc#y'
.	.	.	16b'
.	.	.	16a'J)
=29	=29	=29	=29
8EL	(8AL	(8c#yL	[2aa
8E	8c#y)	8a)	.
8E	8c#y	8a	.
8EJ	8c#yJ	8aJ	.
4E	4c#y	4a	16aaL]
.	.	.	(16gg#'
.	.	.	16ff#y'
.	.	.	16ee'J
4r	4r	4r	16dd'L
.	.	.	16cc#y'
.	.	.	16b'
.	.	.	16a'J)
=30	=30	=30	=30
4F#y	4d	4a	8aaL
.	.	.	(16gg#'
.	.	.	16ff#y'J
4r	4r	4r	16ee'L
.	.	.	16dd'
.	.	.	16cc#y'
.	.	.	16b'J
2r	2r	2r	16a'L
.	.	.	16g#'
.	.	.	16f#y'
.	.	.	16e'J
.	.	.	16d'L
.	.	.	16c#y'
.	.	.	16B'
.	.	.	16A'J)
!!LO:LB
=31	=31	=31	=31
4r	4r	8r	(4Gn
.	.	4A	.
(4E	(4c#y	.	4gn
.	.	4A	.
4D	4d	.	4f#y
.	.	4A	.
4C#y)	4c#y)	.	4e#)
.	.	[8A	.
=32	=32	=32	=32
8DL	8d	8AL]	4f#y
8D	4d	8f#y	.
8D	.	8f#y	2aa
8DJ	4d	8f#yJ	.
8DL	.	8f#yL	.
8D	4d	8ff#yJ	.
.	.	(<16qee	.
.	.	.	(<16qgg#
8D	.	8ddL)	8ff#yL)
8DJ	8f#y	16cc#y	16ee
.	.	16bJ	16ddJ
=33	=33	=33	=33
8EL	8eL	4a	8cc#yL
8E	8e	.	8eeJ
.	.	.	(<16qdd
8E	8e	2a	8cc#yL)
8EJ	8eJ	.	16b
.	.	.	16aJ
8EL	8eL	.	2bT
8E	8e	.	.
8E	8d	4g#T	.
8EJ	8dJ	.	.
=34	=34	=34	=34
8AAL	8c#yL	4a	8aL
8AA	(8c#y	.	(16ee
.	.	.	16ggnJ)
8AA	8d	4r	(16ff#yL
.	.	.	16aa)
8AAJ	8BJ)	.	(16gg#
.	.	.	16bbJ)
8AAL	8c#yL	8r	4aa
8AA	(8e	(16cc#yL	.
.	.	16eeJ)	.
8AA	8f#y	(16ddL	4r
.	.	16b)	.
8AAJ	8dJ)	(16a	.
.	.	16g#J)	.
!!LO:LB
=35	=35	=35	=35
8AAL	8c#yL	4a	8aL
8AA	(8c#y	.	(16ee
.	.	.	16ggnJ)
8AA	8d	4r	(16ff#yL
.	.	.	16aa)
8AAJ	8BJ)	.	(16gg#
.	.	.	16bbJ)
8AAL	8c#yL	8r	4aa
8AA	(8e	(16cc#yL	.
.	.	16eeJ)	.
8AA	8f#y	(16ddL	4r
.	.	16b)	.
8AAJ	8dJ)	(16a	.
.	.	16g#J)	.
=36	=36	=36	=36
8AAL	8c#yL	8aL	8aL
8AA	(16A	(16cc#y	(16aa
.	16G#J	16ddJ	16bbJ
8AA	16AL	16cc#yL	16aaL
.	16G#y	16dd	16bb
8AAJ	16A	16cc#y	16aa
.	16G#yJ)	16ddJ)	16bbJ)
4AA	4A	4cc#y	4aa
4r	4r	4r	4r
=37:|!	=37:|!	=37:|!	=37:|!
8CnL	8cnL	8eL	1aa
8C	8c	8e	.
8C	8c	8e	.
8CJ	8cJ	8eJ	.
8CL	8cL	8eL	.
8C	8c	8e	.
8C	8c	8e	.
8CJ	8cJ	8eJ	.
=38	=38	=38	=38
.	.	.	(<16qbb
8BBL	8F#yL	8d#L	2aa)
8BB	8F#y	8d#y	.
8BB	8F#y	8d#y	.
8BBJ	8F#yJ	8d#yJ	.
.	.	.	(<16qgg
8BBL	8AL	8d#yL	4.ff#y)
8BB	8A	8d#y	.
8BB	8A	8d#y	.
8BBJ	8GJ	8eJ	8ee
!!LO:LB
=39	=39	=39	=39
8BBL	[1B	(16f#yL	(16dd#L
.	.	16g	16ee
8BB	.	16a	16ff#y
.	.	16gJ)	16eeJ)
8BB	.	(16f#yL	(16dd#yL
.	.	16g	16ee
8BBJ	.	16a	16ff#y
.	.	16gJ)	16eeJ)
8BBL	.	(16f#yL	(16dd#yL
.	.	16g	16ee
8BB	.	16a	16ff#y
.	.	16gJ)	16eeJ)
8BB	.	(16f#yL	(16dd#yL
.	.	16g	16ee
8BBJ	.	16a	16ff#y
.	.	16f#yJ)	16dd#yJ)
=40	=40	=40	=40
8BBL	8BL]	4g	4ee
8BB	(8g	.	.
8BB	8b	4r	4r
8BBJ	8gJ)	.	.
8BBL	4e	8r	8r
8BB	.	(8ggL	(8bbL
8BB	4r	8ee	8gg
8BBJ	.	8bJ)	8eeJ)
=41	=41	=41	=41
8BBL	[1B	(16dd#L	(16ff#yL
.	.	16ee	16gg
8BB	.	16ff#y	16aa
.	.	16eeJ)	16ggJ)
8BB	.	(16dd#yL	(16ff#yL
.	.	16ee	16gg
8BBJ	.	16ff#y	16aa
.	.	16eeJ)	16ggJ)
8BBL	.	(16dd#yL	(16ff#yL
.	.	16ee	16gg
8BB	.	16ff#y	16aa
.	.	16eeJ)	16ggJ)
8BB	.	(16dd#yL	(16ff#yL
.	.	16ee	16gg
8BBJ	.	16ff#y	16aa
.	.	16dd#yJ)	16ff#yJ)
=42	=42	=42	=42
8EL	8B]	8ee	4gg
8E	4B	4g	.
8F#y	.	.	4r
8F#yJ	4A	4f#y	.
8GL	.	.	2r
8GG	4G	4e	.
8GG	.	.	.
8GG#J	8F#y	8d	.
=43	=43	=43	=43
8AAL	8EL	8c#yL	1gg
8AA	8E	8c#y	.
8AA	8E	8c#y	.
8AAJ	8EJ	8c#yJ	.
8AAL	8EL	8c#yL	.
8AA	8E	8c#y	.
8AA	8E	8c#y	.
8AAJ	8EJ	8c#yJ	.
=44	=44	=44	=44
.	.	.	(<16qff#y
8AAL	8eL	8c#yL	2ee)
8AA	8e	8c#y	.
8AA	8e	8c#y	.
8AAJ	8eJ	8c#yJ	.
.	.	.	(<16qdd
8GL	8eL	8A#L	2cc#y)
8G	8e	8A#y	.
8G	8e	8A#y	.
8GJ	8eJ	8A#yJ	.
=45	=45	=45	=45
8F#yL	[1F#y	(16c#yL	(16a#L
.	.	16d	16b
8F#y	.	16e	16cc#y
.	.	16dJ)	16bJ)
8F#y	.	(16c#yL	(16a#yL
.	.	16d	16b
8F#yJ	.	16e	16cc#y
.	.	16dJ)	16bJ)
8F#yL	.	(16c#yL	(16a#yL
.	.	16d	16b
8F#y	.	16e	16cc#y
.	.	16dJ)	16bJ)
8F#y	.	(16c#yL	(16a#yL
.	.	16d	16b
8F#yJ	.	16e	16cc#y
.	.	16c#yJ)	16a#yJ)
=46	=46	=46	=46
8BBL	8F#yL]	4d	4b
8BB	(8d	.	.
8BB	8f#y	4r	4r
8BBJ	8dJ)	.	.
8BBL	4B	8r	8r
8BB	.	(8ddL	(8ff#yL
8BB	4r	8b	8dd
8BBJ	.	8f#yJ)	8bJ)
!!LO:LB
=47	=47	=47	=47
8F#yL	[1F#y	(16A#L	(16cc#yL
.	.	16B	16dd
8F#y	.	16c#y	16ee
.	.	16BJ)	16ddJ)
8F#y	.	(16A#yL	(16cc#yL
.	.	16B	16dd
8F#yJ	.	16c#y	16ee
.	.	16BJ)	16ddJ)
8F#yL	.	(16A#yL	(16cc#yL
.	.	16B	16dd
8F#y	.	16c#y	16ee
.	.	16BJ)	16ddJ)
8F#y	.	(16A#yL	(16cc#yL
.	.	16B	16dd
8F#yJ	.	16c#y	16ee
.	.	16A#yJ)	16cc#yJ)
=48	=48	=48	=48
8BL	8F#y]	4B	4dd
8B	4f#y	.	.
8B	.	(8.ddLT	4r
8BJ	8f#y	.	.
.	.	32cc#y	.
.	.	32ddJ)	.
8G#L	8eL	4bb	16eL
.	.	.	16f#y
8G#y	8e	.	16g#
.	.	.	16aJ
8G#y	8e	4r	16bL
.	.	.	16ccn
8G#yJ	8eJ	.	16dd
.	.	.	16bJ
=49	=49	=49	=49
8AL	8e	4r	4ccn
8A	4e	.	.
8A	.	(8.ccnLT	4r
8AJ	8e	.	.
.	.	32b	.
.	.	32ccJ)	.
8F#yL	8dL	4aa	16dL
.	.	.	16e
8F#y	8d	.	16f#y
.	.	.	16gJ
8F#y	8d	4r	16aL
.	.	.	16b
8F#yJ	8dJ	.	16cc
.	.	.	16aJ
!!LO:LB
=50	=50	=50	=50
8GnL	4d	8r	4b
8G	.	(4dd	.
8G	2G	.	4.bb
8GJ	.	8dd#)	.
8GL	.	8ee	.
.	.	.	(<16qaa
8G	.	4b	8ggL)
.	.	.	(<16qff#y
8G#	(8BL	.	8ee)
.	.	.	(<16qee
8G#yJ	8eJ)	8b	8ddJ)
=51	=51	=51	=51
4A	4e	4a 4e	4cc
8.AAL	8.aL	8.eeL 8.cc#y	8.aaL 8.a
16AAJ	16aJ	16eeJ 16cc#y	16aaJ 16a
4AA	4A	4ee 4cc#y	4aa 4a
4r	4r	4r	4r
=52	=52	=52	=52
!LO:TX:a:t=pizzicato	!	!	!
4D	4r	(16dL	1aa
.	.	16c#y	.
.	.	16d	.
.	.	16eJ	.
!	!LO:TX:a:t=pizzicato	!	!
4r	4D	16fnL	.
.	.	16g	.
.	.	16f	.
.	.	16eJ	.
4D	4r	16dL	.
.	.	16c#y	.
.	.	16d	.
.	.	16eJ	.
4r	4D	16fL	.
.	.	16e	.
.	.	16f	.
.	.	16dJ)	.
=53	=53	=53	=53
4G	4r	(16dL	1bb-
.	.	16b-	.
.	.	16dd	.
.	.	16ccJ	.
4r	4G	16b-yL	.
.	.	16cc	.
.	.	16b-y	.
.	.	16aJ	.
4G	4r	16b-yL	.
.	.	16a	.
.	.	16g	.
.	.	16aJ	.
4r	4G	16gL	.
.	.	16fn	.
.	.	16e	.
.	.	16fJ)	.
!!LO:LB
=54	=54	=54	=54
4A	4r	(16eL	1cc#y
.	.	16d	.
.	.	16c	.
.	.	16dJ	.
4r	4A	16eL	.
.	.	16f	.
.	.	16g	.
.	.	16fJ	.
4A	4r	16gL	.
.	.	16a	.
.	.	16b-	.
.	.	16aJ	.
4r	4A	16ccL	.
.	.	16b-y	.
.	.	16a	.
.	.	16gJ)	.
=55	=55	=55	=55
4B-	4r	(16fL	4dd
.	.	16e	.
.	.	16d	.
.	.	16cJ	.
4r	4B-	16dL	4r
.	.	16e	.
.	.	16d	.
.	.	16eJ	.
4B-y	4r	16fL	2r
.	.	16e	.
.	.	16d	.
.	.	16c#yJ	.
4r	4B-y	16dL	.
.	.	16e	.
.	.	16f	.
.	.	16gJ)	.
=56	=56	=56	=56
4Fn	4r	(16aL	2.dd
.	.	16g	.
.	.	16f	.
.	.	16eJ	.
4r	4Fn	16dL	.
.	.	16e	.
.	.	16f	.
.	.	16gJ	.
4F	4r	16aL	.
.	.	16g	.
.	.	16f	.
.	.	16eJ	.
4r	4F	16dL	(8aaL
.	.	16f	.
.	.	16g	8ffnJ)
.	.	16aJ)	.
=57	=57	=57	=57
4G	4r	(16b-L	4ee
.	.	16a	.
.	.	16g	.
.	.	16fJ	.
4r	4G	16eL	4ee
.	.	16f	.
.	.	16g	.
.	.	16aJ	.
4G	4r	16b-yL	4r
.	.	16cc	.
.	.	16b-y	.
.	.	16aJ	.
4r	4G	16gL	8r
.	.	16a	.
.	.	16b-y)	8bb-
.	.	16gJ	.
=58	=58	=58	=58
4G	4r	(16eL	(2.bb
.	.	16f	.
.	.	16g	.
.	.	16fJ	.
4r	4G	16gL	.
.	.	16a	.
.	.	16b-	.
.	.	16aJ	.
4G	4G	16gL	.
.	.	16f	.
.	.	16e	.
.	.	16gJ	.
4G#	4G#	16fL	4dd)
.	.	16bn	.
.	.	16dd	.
.	.	16fJ)	.
=59	=59	=59	=59
4A	4A	(16eL	4cc#y
.	.	16d	.
.	.	16c	.
.	.	16dJ	.
4r	4A	16eL	8r
.	.	16d	.
.	.	16e	8aa
.	.	16c#yJ	.
.	.	.	(<4qgg
4A	4r	16dL	2ffnT)
.	.	16e	.
.	.	16f	.
.	.	16gJ	.
4r	4A	16aL	.
.	.	16f	.
.	.	16e	.
.	.	16dJ)	.
!!LO:LB
=60	=60	=60	=60
4AA	4r	(16c#yL	4ee
.	.	16d	.
.	.	16e	.
.	.	16dJ	.
4r	4A	16c#yL	8r
.	.	16B	.
.	.	16c#y	8aa
.	.	16AJ	.
.	.	.	(<16qgg
4AA	4r	16dL	2ffnT)
.	.	16e	.
.	.	16f	.
.	.	16gJ	.
4r	4A	16aL	.
.	.	16f	.
.	.	16e	.
.	.	16dJ)	.
=61	=61	=61	=61
4A	4r	((16c#yL	4ee
.	.	16d	.
.	.	16e	.
.	.	16dJ)	.
4r	4A	(16c#yL	8r
.	.	16d	.
.	.	16e	8aa
.	.	16dJ)	.
4A	4r	(16c#yL	8aaL
.	.	16d	.
.	.	16e	8aa
.	.	16dJ)	.
4r	4A	(16c#yL	8aa
.	.	16d	.
.	.	16e	8aaJ
.	.	16c#yJ))	.
=62	=62	=62	=62
4B-	4B-	2d	(4gg#
4r	4r	.	4ffn
4BB-	4d	2g#	4ee
4r	4r	.	4dd)
=63	=63	=63	=63
4AA	4e	8a	4cc#y
.	.	(8aL	.
4r	4r	8bn	4r
.	.	8aJ)	.
2r	2r	(8gL	2r
.	.	8f#	.
.	.	8g	.
.	.	8eJ)	.
!!LO:LB
=64	=64	=64	=64
8r	1r	8f#y	1r
!LO:TX:a:t=coll'arco	!	!	!
(8AL	.	(8f#yL	.
8Bn	.	8g	.
8AJ)	.	8f#yJ)	.
(8GL	.	(8eL	.
8F#	.	8d	.
8G	.	8e	.
8EJ)	.	8c#yJ)	.
=65	=65	=65	=65
!	!LO:TX:a:t=coll'arco	!	!
8DL	8dL	8dL	1aa
8D	8d	8f#y	.
8D	8d	8f#y	.
8DJ	8dJ	8f#yJ	.
8DL	8dL	8f#yL	.
8D	8d	8f#y	.
8D	8d	8f#y	.
8DJ	8dJ	8f#yJ	.
=66	=66	=66	=66
.	.	.	(<16qgg
8DL	8dL	8aL	2ff#y)
8D	8d	8a	.
8D	8d	8a	.
8DJ	8dJ	8aJ	.
.	.	.	(<16qee
8DL	8AL	8f#yL	2dd)
8D	8A	8f#y	.
8D	8A	8f#y	.
8DJ	8AJ	8f#yJ	.
=67	=67	=67	=67
8DL	[1A	(16eL	(16cc#yL
.	.	16f#y	16dd
8D	.	16g	16ee
.	.	16f#yJ)	16ddJ)
8D	.	(16eL	(16cc#yL
.	.	16f#y	16dd
8DJ	.	16g	16ee
.	.	16f#yJ)	16ddJ)
8DL	.	(16eL	(16cc#yL
.	.	16f#y	16dd
8D	.	16g	16ee
.	.	16f#yJ)	16ddJ)
8D	.	(16eL	(16cc#yL
.	.	16f#y	16dd
8DJ	.	16g	16ee
.	.	16eJ)	16cc#yJ)
!!LO:LB
=68	=68	=68	=68
8DL	8AL]	4f#y	4dd
8D	(8f#y	.	.
8D	8a	4r	4r
8DJ	8f#yJ)	.	.
8DL	4d	8r	8r
8D	.	(8f#yL	(8aaL
8D	4r	8d	8ff#y
8DJ	.	8aJ)	8ddJ)
=69	=69	=69	=69
8AAL	[1A	(16c#yL	(16eeL
.	.	16d	16ff#y
8AA	.	16e	16gg
.	.	16dJ)	16ff#yJ)
8AA	.	(16c#yL	(16eeL
.	.	16d	16ff#y
8AAJ	.	16e	16gg
.	.	16dJ)	16ff#yJ)
8AAL	.	(16c#yL	(16eeL
.	.	16d	16ff#y
8AA	.	16e	16gg
.	.	16dJ)	16ff#yJ)
8AA	.	(16c#yL	(16eeL
.	.	16d	16ff#y
8AAJ	.	16e	16gg
.	.	16c#yJ)	16eeJ)
=70	=70	=70	=70
8DL	8A]	8d	4ff#y
8D	4f#y	4a	.
8D	.	.	4.dd
8DJ	4f#y	4a	.
8DL	.	.	.
8D	(8f#yL	4a	16eeL
.	.	.	16ff#yJ
8E	8e	.	16ggL
.	.	.	16aa
8EJ	8gJ)	8a	16bb
.	.	.	16ccc#yJ
=71	=71	=71	=71
8F#yL	8f#yL	8aL	2ddd
8F#y	8f#y	8a	.
8F#y	8f#y	8a	.
8F#yJ	8f#yJ	8aJ	.
8F#yL	8aL	8ddL	4aa
8F#y	8a	8dd	.
8F#y	8a	8dd	4ff#y
8F#yJ	8aJ	8ddJ	.
=72	=72	=72	=72
8GL	8b	8dd	(16ff#yL
.	.	.	16gg
8G	4g	4b	16dd#
.	.	.	16eeJ)
8G	.	.	4ee
8GJ	4g	4b	.
8GL	.	.	8r
8G	(8gL	(8bL	(8eeL
8G	8b	8ee	8gg
8GJ	8eJ)	8ggJ)	8bbJ)
=73	=73	=73	=73
.	.	(<16qee#	.
.	.	.	(<16qgg#
8AL	8AL	2ff#y)	2aa)
8A	8A	.	.
8A	8A	.	.
8AJ	8AJ	.	.
.	.	(<16qee#y	.
.	.	.	(<16qgg#y
8AL	8AL	4ff#y)	4aa)
8A	8A	.	.
.	.	(<16qee#y	.
.	.	.	(<16qgg#y
8A	8A	4ff#y)	4aa)
8AJ	8AJ	.	.
=74	=74	=74	=74
.	.	(<16qdd#	.
.	.	.	(<16qaa
8AAL	8AL	4ee)	4ggn)
8AA	8A	.	.
.	.	(<16qdd#y	.
.	.	.	(<16qff#y
8AA	8A	4.ee)	4.gg)
8AAJ	8AJ	.	.
8AAL	8AL	.	.
8AA	8A	16ddnL	16ff#yL
.	.	16eeJ	16ggJ
8AA	8A	16ff#yL	16aaL
.	.	16ee	16gg
8AAJ	8AJ	16dd	16ff#y
.	.	16cc#yJ	16eeJ
=75	=75	=75	=75
4D	4A	4dd	16ddL
.	.	.	16a
.	.	.	16f#y
.	.	.	16aJ
8r	8r	8r	16ddL
.	.	.	16a
8AA	8a	8cc#y	16ee
.	.	.	16aJ
4D	4a	4dd	16ff#yL
.	.	.	16dd
.	.	.	16aa
.	.	.	16ff#yJ
8r	8r	8r	16ggL
.	.	.	16ee
8A	8e	8g	16dd
.	.	.	16cc#yJ
!!LO:LB
=76	=76	=76	=76
4D	4d	4f#y	16ddL
.	.	.	16a
.	.	.	16f#y
.	.	.	16aJ
8r	8r	8r	16ddL
.	.	.	16a
8AA	8a	8cc#y	16ee
.	.	.	16aJ
4D	4a	4dd	16ff#yL
.	.	.	16dd
.	.	.	16ff#y
.	.	.	16aaJ
8r	8r	4r	16ggL
.	.	.	16ee
8A	8g	.	16dd
.	.	.	16cc#yJ
=77	=77	=77	=77
8DL	8f#yL	2.ddd	4dd
8D	8f#y	.	.
8D	8f#y	.	4r
8DJ	8f#yJ	.	.
8DL	8f#yL 8A	.	2r
8D	8f#y 8A	.	.
8D	8f#y 8A	8.aaL	.
8DJ	8f#yJ 8A	.	.
.	.	16ff#yJ	.
=78	=78	=78	=78
8DL	8f#yL 8A	4dd	1r
8D	8f#y 8A	.	.
8D	8f#y 8A	8.aL	.
8DJ	8f#yJ 8A	.	.
.	.	16f#yJ	.
8DL	8f#yL 8A	8dL	.
8D	8f#y 8A	8ddd	.
8D	8f#y 8A	8ddd	.
8DJ	8f#yJ 8A	8dddJ	.
=79	=79	=79	=79
8DL	8dL	(8dddLT)	2.aa 2.ff#y 2.d
8D	8d	8cccnJ)	.
8D	8d	4ccc	.
8DJ	8dJ	.	.
8DL	8dL	2r	.
8D	8d	.	.
8D	8d	.	8.aaL
8DJ	8dJ	.	.
.	.	.	16ff#yJ
!!LO:LB
=80	=80	=80	=80
8DL	8aL 8f#y	2r	4ccn
8D	8a 8f#y	.	.
8D	8a 8f#y	.	8.aL
8DJ	8aJ 8f#y	.	.
.	.	.	16f#yJ
8DL	8a 8f#y	8r	8dL
8D	4d	16ff#yL	16aa
.	.	16ggJ	16bbJ
8D	.	8aaL	8cccnL
8DJ	[8d	8aaJ	8cccJ
=81	=81	=81	=81
8GL	8d]	4gg	16bbL
.	.	.	(16aa
8G	4d	.	16gg
.	.	.	16ff#yJ)
8B	.	(4g	16ggL
.	.	.	(16ff#y
8BJ	4d	.	16ee
.	.	.	16ddJ)
8AL	.	4f#y)	16ccnL
.	.	.	16ff#y
8A	4d	.	16aa
.	.	.	16ggJ
8D	.	(4ff#y	16ff#yL
.	.	.	16ee
8DJ	[8d	.	16dd
.	.	.	16ccJ
=82	=82	=82	=82
8GL	4d]	4gg)	16bL
.	.	.	16dd
8G	.	.	16gg
.	.	.	16ff#yJ
8A	(4a	(4ccn	16ggL
.	.	.	16ff#y
8AJ	.	.	16ee
.	.	.	16dd#J
8GL	4g)	4b)	16eeL
.	.	.	16gg
8G	.	.	16bb
.	.	.	16aaJ
8G	4e	(4B	16ggL
.	.	.	16ff#y
8G#J	.	.	16ee
.	.	.	16ddnJ
!!LO:LB
=83	=83	=83	=83
8AL	4e	16AL)	4cc
.	.	16a	.
8A	.	16cc#	.
.	.	16eeJ	.
8c#y	(4a	16aaL	[2.ee
.	.	16gg#	.
8c#yJ	.	16ff#y	.
.	.	16eeJ	.
8BL	4g#)	16ddL	.
.	.	16cc#y	.
8B	.	16b	.
.	.	16aJ	.
8E	(8BL	16g#L	.
.	.	16b	.
8EJ	8G#J)	16ee	.
.	.	16ddJ	.
=84	=84	=84	=84
8AAL	4A	16cc#yL	4ee]
.	.	16b	.
8AA	.	16a	.
.	.	16bJ	.
8E	(4gn	16cc#yL	[2.aa
.	.	16dd	.
8EJ	.	16ee	.
.	.	16ff#yJ	.
8C#yL	4e)	16ggnL	.
.	.	16ff#y	.
8C#y	.	16ee	.
.	.	16ddJ	.
8AA	4e 4c#y	16cc#yL	.
.	.	16b	.
8AAJ	.	16a	.
.	.	16gnJ	.
=85	=85	=85	=85
8DL	2d	4f#y	16aaL]
.	.	.	16dd
8D	.	.	16ff#y
.	.	.	16aaJ
8F#y	.	[2.aa	16dddL
.	.	.	16ccc#y
8F#yJ	.	.	16bb
.	.	.	16aaJ
8EL	4c#y	.	16ggL
.	.	.	16ff#y
8E	.	.	16ee
.	.	.	16ddJ
8AA	(8eL	.	16cc#yL
.	.	.	16ee
8AAJ	8c#yJ)	.	16aa
.	.	.	16ggJ
=86	=86	=86	=86
8DL	(8dL	1aa_	16ff#yL
.	.	.	16ee
8D	8f#y	.	16dd
.	.	.	16cc#yJ
8F#y	8a	.	16ddL
.	.	.	16a
8F#yJ	8dJ)	.	16b
.	.	.	16f#yJ
8EL	4c#y	.	16gL
.	.	.	16f#y
8E	.	.	16e
.	.	.	16dJ
8AA	(8eL	.	16c#yL
.	.	.	16e
8AAJ	8c#yJ)	.	16a
.	.	.	16gJ
=87	=87	=87	=87
4D	4d	8aaL]	4f#y
.	.	8dd	.
4r	4r	8d	4r
.	.	8eJT	.
2r	2r	8f#yL	8r
.	.	8dd	8ddL
.	.	8f#y	8d
.	.	8gJT	8eJT
=88	=88	=88	=88
2r	8r	8a	8f#y
.	8dL	(4f#y	(4dd
.	8D	.	.
.	8EJT	8g)	8cc#y)
8r	8F#y	8aL	8ddL
8DL	(4A	(8a	(16ff#y
.	.	.	16ddJ)
8DD	.	8f#y	(8aL
8EEJT	8c#y)	8eJ)	8gJ)
=89	=89	=89	=89
8FF#yL	8d	8d	4f#y
8F#y	4d	4a	.
8F#y	.	.	4.ddd
8F#yJ	4d	4a	.
8F#yL	.	.	.
8F#y	(8aL	4dd	8cccnL
8F#y	8g	.	8bb
8F#yJ	8f#yJ)	8dd	8aa#J
=90	=90	=90	=90
.	.	.	(<16qaa#
8GL	8gL	8ddL	2bb)
8G	8g	8dd	.
8G	8g	8dd	.
8GJ	8gJ	8ddJ	.
.	.	.	(<16qaa#y
8GGL	8GL	8dL	4bb)
8GG	8G	8d	.
.	.	.	(<16qaa#y
8GG	8G	8d	4bb)
8GGJ	8GJ	8dJ	.
!!LO:LB
=91	=91	=91	=91
8AAL	8AL	8cnL	1d#
8AA	8F#y	8c	.
8AA	8F#y	8c	.
8AAJ	8F#yJ	8cJ	.
8AAL	8F#yL	8cL	.
8AA	8F#y	8c	.
8AA	8F#y	8c	.
8AAJ	8F#yJ	8cJ	.
=92	=92	=92	=92
8GGL	8GL	8BL	2e
8GG	8G	8B	.
8GG	8G	8B	.
8GGJ	8GJ	8BJ	.
8GL	8BL	8eL	4bb
8G	8B	8e	.
8G	8A	8e	4ccc#y
8GJ	8AJ	8eJ	.
=93	=93	=93	=93
8F#yL	(8AL	(8dL	[2ddd
8F#y	8f#y)	8a)	.
8F#y	8f#y	8a	.
8F#yJ	8f#yJ	8aJ	.
4F#y	4f#y	4a	16dddL]
.	.	.	(16ccc#y'
.	.	.	16bb'
.	.	.	16aa'J
4r	4r	4r	16gg'L
.	.	.	16ff#y'
.	.	.	16ee'
.	.	.	16dd'J)
=94	=94	=94	=94
8GL	(8BL	(8dL	[2ddd
8G	8d)	8b)	.
8G	8d	8b	.
8GJ	8dJ	8bJ	.
4G	4d	4b	16dddL]
.	.	.	(16ccc#y'
.	.	.	16bb'
.	.	.	16aa'J
4r	4r	4r	16gg'L
.	.	.	16ff#y'
.	.	.	16ee'
.	.	.	16dd'J)
!!LO:LB
=95	=95	=95	=95
8AL	(8dL	(8f#yL	[2ddd
8A	8f#y)	8dd)	.
8A	8f#y	8dd	.
8AJ	8f#yJ	8ddJ	.
4A	4f#y	4dd	16dddL]
.	.	.	(16ccc#y'
.	.	.	16bb'
.	.	.	16aa'J
4r	4r	4r	16gg'L
.	.	.	16ff#y'
.	.	.	16ee'
.	.	.	16dd'J)
=96	=96	=96	=96
4B	4g	4dd	8dddL
.	.	.	(16ccc#y'
.	.	.	16bb'J
4r	4r	4r	16aa'L
.	.	.	16gg'
.	.	.	16ff#y'
.	.	.	16ee'J
2r	2r	2r	16dd'L
.	.	.	16cc#y'
.	.	.	16b'
.	.	.	16a'J
.	.	.	16g'L
.	.	.	16f#y'
.	.	.	16e'
.	.	.	16d'J)
=97	=97	=97	=97
4r	4r	8r	(2cn
.	.	4d	.
(4AA	(4F#y	.	.
.	.	4d	.
4GG	4G	.	4B
.	.	4d	.
4FF#y)	4F#y)	.	4A#)
.	.	[8d	.
=98	=98	=98	=98
8GGL	8G	8dL]	4B
8GG	4g	8b	.
8GG	.	8b	2ddd
8GGJ	4g	8bJ	.
8GL	.	8bL	.
8G	4g	8ddJ	.
.	.	(<16qaa	.
.	.	.	(<16qccc
8G	.	8ggL)	8bbL)
8GJ	8g	16ff#y	16aa
.	.	16eeJ	16ggJ
!!LO:LB
=99	=99	=99	=99
8AL	8aL	4dd	8ff#yL
8A	8a	.	8aaJ
.	.	.	(<16qgg
8A	8a	2dd	8ff#yL)
8AJ	8aJ	.	16ee
.	.	.	16ddJ
8AAL	8AL	.	2eeT
8AA	8A	.	.
8AA	8G	4cc#yT	.
8AAJ	8GJ	.	.
=100	=100	=100	=100
8DL	8F#yL	8ddL	4dd
8D	(8f#y	(16a	.
.	.	16ccnJ)	.
8D	8g	(16bL	4r
.	.	16dd)	.
8DJ	8eJ)	(16cc#	.
.	.	16eeJ)	.
8DL	8f#yL	4dd	8r
8D	8d	.	(16ff#yL
.	.	.	16aaJ)
8D	8B	4r	(16ggL
.	.	.	16ee)
8DJ	8GJ	.	(16dd
.	.	.	16cc#yJ)
=101	=101	=101	=101
8DL	8F#yL	8ddL	4dd
8D	(8f#y	(16a	.
.	.	16ccnJ)	.
8D	8g	(16bL	4r
.	.	16dd)	.
8DJ	8eJ)	(16cc#	.
.	.	16eeJ)	.
8DL	8f#yL	4dd	8r
8D	8d	.	(16ff#yL
.	.	.	16aaJ)
8D	8B	4r	(16ggL
.	.	.	16ee)
8DJ	8GJ	.	(16dd
.	.	.	16cc#yJ)
=102	=102	=102	=102
8DL	8F#yL	8ddL	8ddL
8D	(16d	(16dd	(16ff#y
.	16c#yJ	16eeJ	16ggJ
8D	16dL	16ddL	16ff#yL
.	16c#y	16ee	16gg
8DJ	16d	16dd	16ff#y
.	16c#yJ)	16eeJ)	16ggJ)
4DD	4d	4dd	4ff#y
4r	4r	4r	4r
=:|!	=:|!	=:|!	=:|!
*-	*-	*-	*-
!!!RDF**kern: < = below
